actions/24/pane-hide-symbolic-rtl.svg

<?xml version="1.0" encoding="UTF-8" standalone="no"?>
<svg
   height="24"
   width="24"
   version="1.1"
   id="svg238"
   sodipodi:docname="pane-hide-symbolic-rtl.svg"
   inkscape:version="1.2.2 (b0a8486541, 2022-12-01)"
   xmlns:inkscape="http://www.inkscape.org/namespaces/inkscape"
   xmlns:sodipodi="http://sodipodi.sourceforge.net/DTD/sodipodi-0.dtd"
   xmlns="http://www.w3.org/2000/svg"
   xmlns:svg="http://www.w3.org/2000/svg">
  <defs
     id="defs242" />
  <sodipodi:namedview
     id="namedview240"
     pagecolor="#ffffff"
     bordercolor="#000000"
     borderopacity="0.25"
     inkscape:showpageshadow="2"
     inkscape:pageopacity="0.0"
     inkscape:pagecheckerboard="0"
     inkscape:deskcolor="#d1d1d1"
     showgrid="false"
     inkscape:zoom="33.5"
     inkscape:cx="12"
     inkscape:cy="12.014925"
     inkscape:window-width="1920"
     inkscape:window-height="1030"
     inkscape:window-x="0"
     inkscape:window-y="0"
     inkscape:window-maximized="1"
     inkscape:current-layer="svg238" />
  <path
     id="path2"
     style="fill:#555761;fill-opacity:1;marker:none"
     d="M 7.5,2 C 7.223,2 7,2.2230003 7,2.5 v 1 C 7,3.7769997 7.223,4 7.5,4 H 16 c 0.553999,0 1,0.4460006 1,1 v 13 c 0,0.553999 -0.446001,1 -1,1 H 7.5 C 7.223,19 7,19.223 7,19.5 v 1 C 7,20.777 7.223,21 7.5,21 H 17 c 1.107999,0 2,-0.892001 2,-2 V 4 C 19,2.8920011 18.107999,2 17,2 Z"
     sodipodi:nodetypes="cssccssccssccsscc" />
  <path
     id="rect3396"
     style="fill:#555761;fill-opacity:1;stroke:none;stroke-width:0.999995;stroke-linejoin:round;stroke-opacity:0.5;stop-color:#000000"
     d="m 6.9958254,6.7500298 c 0.141664,-7.402e-4 0.28391,0.028978 0.417968,0.089844 0.356806,0.162335 0.585877,0.5181571 0.585938,0.910156 V 10.00003 h 4.9999996 c 0.553998,0 1,0.446002 1,1 v 1 c 0,0.553998 -0.446002,1 -1,1 H 7.9997314 v 2.249024 c -9.5e-4,0.858428 -1.011819,1.316832 -1.658203,0.751952 L 1.8407318,12.251983 c -0.4543091,-0.398371 -0.4543091,-1.105535 0,-1.503906 L 6.3415284,6.9980767 c 0.184615,-0.1616459 0.418189,-0.2468132 0.654297,-0.2480469 z"
     sodipodi:nodetypes="scccssssccccccs" />
</svg>

<svg
        xmlns='http://www.w3.org/2000/svg'
        xmlns:svg='http://www.w3.org/2000/svg'
        id='svg238'
        width='24'
        height='24'>
  <path
          id='path2'
          fill='url(#gpa:foreground) #555761'
          fill-opacity='1'
          fill-rule='nonzero'
          marker-start='none'
          marker-mid='none'
          marker-end='none'
          d='M 7.5 2 C 7.223 2, 7 2.223, 7 2.5 L 7 3.5 C 7 3.777, 7.223 4, 7.5 4 L 16 4 C 16.554 4, 17 4.446, 17 5 L 17 18 C 17 18.554, 16.554 19, 16 19 L 7.5 19 C 7.223 19, 7 19.223, 7 19.5 L 7 20.5 C 7 20.777, 7.223 21, 7.5 21 L 17 21 C 18.108 21, 19 20.108, 19 19 L 19 4 C 19 2.892, 18.108 2, 17 2 Z'
          class="foreground">
  </path>
  <path
          id='rect3396'
          fill='url(#gpa:foreground) #555761'
          fill-opacity='1'
          fill-rule='nonzero'
          stroke='none'
          stroke-opacity='0.5'
          stroke-width='0.999995'
          stroke-linejoin='round'
          d='M 6.99583 6.75003 C 7.13749 6.74929, 7.27974 6.77901, 7.41379 6.83987 C 7.7706 7.00221, 7.99967 7.35803, 7.99973 7.75003 L 7.99973 10 L 12.9997 10 C 13.5537 10, 13.9997 10.446, 13.9997 11 L 13.9997 12 C 13.9997 12.554, 13.5537 13, 12.9997 13 L 7.99973 13 L 7.99973 15.2491 C 7.99878 16.1075, 6.98791 16.5659, 6.34153 16.001 L 1.84073 12.252 C 1.38642 11.8536, 1.38642 11.1464, 1.84073 10.7481 L 6.34153 6.99808 C 6.52614 6.83643, 6.75972 6.75126, 6.99583 6.75003 Z'
          class="foreground">
  </path>
</svg>
